X:1
T:Title
%%score { ( 1 3 ) | ( 2 4 ) }
L:1/8
Q:1/4=90
M:6/8
K:Bb
V:1 treble nm="Grand Piano"
V:3 treble 
V:2 bass 
V:4 bass 
V:1
 [Fd][=E_d][F=d] [DF][DG][_A,D] | [A,EF]3 [A,EF]3 | [DB][Ec][Fd] [EGc][DFB][EFA] | [DFB]6 | %4
w: Haldor~Lillenas * * * * *||||
 [Fd][=E_d][F=d] [DF][DG][_A,D] | [A,EF]3 [B,DF]2 [_A,DG] | AcB A2 [=EG] | F6 | %8
w: ||||
 d-[Ad-][Gd] d[Bd][Gd] | e2- [=B,_Ae] [=Ae]3 | [Fe][Ae][Bd] [ce][=Bd][ce] | [df]2 [ce] .[Bd]3 | %12
w: ||||
 e-[Fe-][Ge] e-[A,Ae][Ge] | d3 z3 | [c=e][Be][Ae] [Ge][Ae][Ge] | e6 | d3 z3 | e3 z3 | %18
w: ||||||
 [Fe][Ae][Bd] [ce][=Bd][ce] | [df]2 [ce] .[Bd]3 | .e3 .e3 | [Fd]2 [Dd] [Fd]2 [Bd] | %22
w: ||||
 [Ae][Ge][Ae] [df]2 [ce] |[M:7/4] [Bd]6 z2 z2 z4 |[M:3/4] [DF][DF] [DF] [EA]2 [EF] | [DB]6 |] %26
w: ||||
V:2
 [B,,B,][B,,B,][B,,B,] [B,,B,][B,,B,]=B,, | C,3 F,,3 | [B,,F,][F,A,]B, E,F,F, | B,,6 | %4
 [B,,B,][B,,B,][B,,B,] [B,,B,][B,,B,]=B,, | C,3 B,,2 =B,, | %6
 [C,F,C][C,F,A,C][=E,G,C] [F,CF]2 [C,B,] | C3 z3 | .B,3 z3 | .[F,C]3 [F,C]3 | %10
 [F,A,][F,C][F,B,] [F,A,][F,_A,][F,=A,] | [B,,B,]6 | .B,3 z3 | .B,3 z3 | %14
 [C,C][C,C][C,C] [C,B,][C,C][C,C] | [A,CF]2 [G,B,][K:bass] .[F,C]3 | .B,3 z3 | .[F,C]3 [F,C]3 | %18
 [F,A,][F,C][F,B,] [F,A,][F,_A,][F,=A,] | [B,,B,]6 | .[E,B,]2 [E,B,] .[E,G,]2 [E,B,] | %21
 [B,,B,]2 [B,,F,] [B,,B,]2 [B,,B,] | [F,C][F,B,][F,C] [F,B,]2 [F,A,] |[M:7/4] [B,,F,B,]6 z2 z2 z4 | %24
[M:3/4] [B,,B,][B,,B,] [B,,B,] [F,C]2 [F,A,] | [B,,B,]6 |] %26
V:3
 x6 | x6 | x6 | x6 | x6 | x6 | x6 | z3 .E3 | .B3 z3 | .A3 z3 | x6 | x6 | .G3 .B3 | F=EF [Bd]3 | %14
 x6 | z2 G .A3 | BAG d[Bd][Gd] | A2 [=B,_A] [=Ae]3 | x6 | x6 | G[A,^F][Ge] B[A,A][Ge] | x6 | x6 | %23
[M:7/4] x14 |[M:3/4] x6 | x6 |] %26
V:4
 x6 | x6 | x6 | x6 | x6 | x6 | x6 | [F,A,]6 | B,,-[B,,-B,][B,,-B,] [B,,B,F][B,,F,][B,,B,] | x6 | %10
 x6 | x6 | E,-[E,-A,][E,B,] .[E,G,]2 [E,B,] | B,,-[B,,-B,][B,,B,] [B,,F,]3 | x6 | x3[K:bass] x3 | %16
 B,,-[B,,-B,][B,,-B,] [B,,B,F][B,,F,][B,,B,] | x6 | x6 | x6 | x6 | x6 | x6 |[M:7/4] x14 | %24
[M:3/4] x6 | x6 |] %26

